readme-assets/app-store/macos_black.svg

<?xml version="1.0" encoding="UTF-8"?>
<svg width="160px" height="40px" viewBox="0 0 160 40" version="1.1" xmlns="http://www.w3.org/2000/svg" xmlns:xlink="http://www.w3.org/1999/xlink">
    <!-- Generator: Sketch 51 (57462) - http://www.bohemiancoding.com/sketch -->
    <title>App Store/macOS Black</title>
    <desc>Created with Sketch.</desc>
    <defs></defs>
    <g id="App-Store/macOS-Black" stroke="none" stroke-width="1" fill="none" fill-rule="evenodd">
        <path d="M8.56297596,0.5 C5.92377779,0.5 4.80772866,0.715519029 3.65297491,1.33308809 C2.65156748,1.86864664 1.86864664,2.65156748 1.33308809,3.65297491 C0.715519029,4.80772866 0.5,5.92377779 0.5,8.56297596 L0.5,31.437024 C0.5,34.0762222 0.715519029,35.1922713 1.33308809,36.3470251 C1.86864664,37.3484325 2.65156748,38.1313534 3.65297491,38.6669119 C4.80772866,39.284481 5.92377779,39.5 8.56297596,39.5 L151.437024,39.5 C154.076222,39.5 155.192271,39.284481 156.347025,38.6669119 C157.348433,38.1313534 158.131353,37.3484325 158.666912,36.3470251 C159.284481,35.1922713 159.5,34.0762222 159.5,31.437024 L159.5,8.56297596 C159.5,5.92377779 159.284481,4.80772866 158.666912,3.65297491 C158.131353,2.65156748 157.348433,1.86864664 156.347025,1.33308809 C155.192271,0.715519029 154.076222,0.5 151.437024,0.5 L8.56297596,0.5 Z" id="Shape" stroke="#A6A6A6" fill="#000000"></path>
        <path d="M48.14895,30.49474 L48.14895,21.3546 L48.0884,21.3546 L44.34523,30.4 L42.91652,30.4 L39.16359,21.3546 L39.104,21.3546 L39.104,30.49474 L37.34816,30.49474 L37.34816,18.07628 L39.57765,18.07628 L43.5962,27.87853 L43.66456,27.87853 L47.6753,18.07628 L49.9126,18.07628 L49.9126,30.49474 L48.14895,30.49474 Z M51.396,27.9215 C51.396,26.3385 52.60889,25.38244 54.76123,25.2535 L57.23975,25.11532 L57.23975,24.42684 C57.23975,23.42 56.57666,22.85164 55.44875,22.85164 C54.5843868,22.7366849 53.7695308,23.2828493 53.54738,24.12605 L51.8091,24.12605 C51.86086,22.49031 53.3843,21.32918 55.50051,21.32918 C57.66067,21.32918 59.08938,22.50789 59.08938,24.28918 L59.08938,30.49475 L57.30813,30.49475 L57.30813,29.00548 L57.26513,29.00548 C56.6841039,30.0339884 55.5889228,30.6642982 54.40773,30.65 C53.6375443,30.7253603 52.8713364,30.472059 52.29783,29.9524865 C51.7243236,29.4329139 51.396825,28.6953634 51.396,27.9215 Z M57.23975,27.10412 L57.23977,26.40685 L55.01026,26.54455 C53.89991,26.61389 53.27198,27.09533 53.27198,27.86975 C53.27198,28.66175 53.92628,29.17834 54.92432,29.17834 C55.5082836,29.2179568 56.0834952,29.0200439 56.5194543,28.6295023 C56.9554134,28.2389608 57.215162,27.6888984 57.23977,27.10411 L57.23975,27.10412 Z M66.89309,24.55577 C66.7246201,23.5288787 65.7965356,22.8029747 64.7593,22.88682 C63.33059,22.88682 62.3843,24.08311 62.3843,25.96836 C62.3843,27.89609 63.33938,29.05723 64.7759,29.05723 C65.8004146,29.15983 66.7278897,28.44753 66.89309,27.43123 L68.68309,27.43123 C68.4514987,29.3780113 66.7115991,30.7862215 64.7593,30.607 C62.1773,30.607 60.49075,28.84235 60.49075,25.96833 C60.49075,23.15339 62.17727,21.32917 64.74175,21.32917 C66.7085327,21.1623869 68.449747,22.5938311 68.66655,24.55573 L66.89309,24.55577 Z M80.7593,27.13829 L76.0259,27.13829 L74.88918,30.49474 L72.8843,30.49474 L77.3677,18.07628 L79.4507,18.07628 L83.9341,30.49474 L81.895,30.49474 L80.7593,27.13829 Z M76.51614,25.58946 L80.26814,25.58946 L78.41853,20.14171 L78.36677,20.14171 L76.51614,25.58946 Z M93.61672,25.96837 C93.61672,28.78185 92.11086,30.58946 89.8384,30.58946 C88.6637853,30.6509046 87.5573624,30.0356707 86.98977,29.00546 L86.94677,29.00546 L86.94677,33.48983 L85.0884,33.48983 L85.0884,21.44054 L86.88723,21.44054 L86.88723,22.9464 L86.92141,22.9464 C87.5142167,21.9226463 88.6218337,21.3076766 89.80422,21.34581 C92.10207,21.34581 93.61672,23.16222 93.61672,25.96837 Z M91.70656,25.96837 C91.70656,24.13487 90.75929,22.9298 89.31398,22.9298 C87.89406,22.9298 86.93898,24.16027 86.93898,25.96837 C86.93898,27.79259 87.89406,29.01427 89.31398,29.01427 C90.7593,29.01427 91.70656,27.818 91.70656,25.96837 Z M103.58156,25.96837 C103.58156,28.78185 102.0757,30.58946 99.80324,30.58946 C98.6286253,30.6509046 97.5222024,30.0356707 96.95461,29.00546 L96.91161,29.00546 L96.91161,33.48983 L95.05321,33.48983 L95.05321,21.44054 L96.85204,21.44054 L96.85204,22.9464 L96.88622,22.9464 C97.4790283,21.9226479 98.5866443,21.3076788 99.76903,21.34581 C102.06691,21.34581 103.58156,23.16222 103.58156,25.96837 Z M101.6714,25.96837 C101.6714,24.13487 100.72413,22.9298 99.27882,22.9298 C97.8589,22.9298 96.90382,24.16027 96.90382,25.96837 C96.90382,27.79259 97.8589,29.01427 99.27882,29.01427 C100.72414,29.01427 101.67141,27.818 101.67141,25.96837 L101.6714,25.96837 Z M110.1675,27.03478 C110.3052,28.26623 111.5015,29.07478 113.13625,29.07478 C114.70266,29.07478 115.82961,28.26619 115.82961,27.15583 C115.82961,26.19196 115.14992,25.61483 113.54055,25.21931 L111.93118,24.83113 C109.65091,24.28035 108.59231,23.21394 108.59231,21.48347 C108.59231,19.34089 110.4595,17.86921 113.11086,17.86921 C115.73486,17.86921 117.53371,19.34089 117.59426,21.48347 L115.71826,21.48347 C115.60596,20.24421 114.58154,19.49617 113.08447,19.49617 C111.5874,19.49617 110.56298,20.25301 110.56298,21.35457 C110.56298,22.2325 111.21729,22.7491 112.81787,23.14457 L114.18603,23.48051 C116.73388,24.08305 117.79248,25.10651 117.79248,26.92338 C117.79248,29.24662 115.94189,30.7017 112.99853,30.7017 C110.24462,30.7017 108.38525,29.2808 108.26513,27.0347 L110.1675,27.03478 Z M121.80324,19.298 L121.80324,21.44058 L123.52492,21.44058 L123.52492,22.91226 L121.80324,22.91226 L121.80324,27.90396 C121.80324,28.67935 122.14797,29.04068 122.9048,29.04068 C123.109191,29.0371159 123.313252,29.0227626 123.51613,28.99768 L123.51613,30.46057 C123.175858,30.5241496 122.830001,30.5529445 122.4839,30.54651 C120.6509,30.54651 119.93605,29.85803 119.93605,28.10217 L119.93605,22.91222 L118.61964,22.91222 L118.61964,21.44054 L119.93605,21.44054 L119.93605,19.298 L121.80324,19.298 Z M124.521,25.96837 C124.521,23.11925 126.19873,21.32921 128.81495,21.32921 C131.43995,21.32921 133.10987,23.11921 133.10987,25.96837 C133.10987,28.82482 131.44874,30.60704 128.81495,30.60704 C126.18215,30.607 124.521,28.82482 124.521,25.96837 Z M131.21631,25.96837 C131.21631,24.01378 130.3208,22.86046 128.81494,22.86046 C127.30908,22.86046 126.41357,24.02257 126.41357,25.96837 C126.41357,27.93028 127.30908,29.07482 128.81494,29.07482 C130.3208,29.07482 131.21633,27.93028 131.21633,25.96837 L131.21631,25.96837 Z M134.64211,21.44054 L136.41457,21.44054 L136.41457,22.98154 L136.45757,22.98154 C136.704746,21.9895284 137.613703,21.3067916 138.6353,21.3458 C138.849464,21.3450522 139.063037,21.3683107 139.27202,21.41514 L139.27202,23.15342 C139.001651,23.0708033 138.71961,23.0328713 138.43702,23.04112 C137.890668,23.0189554 137.361921,23.2366947 136.989611,23.637166 C136.617302,24.0376372 136.438627,24.5808307 136.5005,25.12412 L136.5005,30.49473 L134.6421,30.49473 L134.64211,21.44054 Z M147.84035,27.83556 C147.59035,29.47911 145.98976,30.60704 143.94191,30.60704 C141.30812,30.60704 139.67336,28.84239 139.67336,26.01134 C139.67336,23.17101 141.31691,21.32921 143.86379,21.32921 C146.36867,21.32921 147.94387,23.04991 147.94387,25.79552 L147.94387,26.43224 L141.54934,26.43224 L141.54934,26.54454 C141.489637,27.2185716 141.722382,27.8857694 142.18837,28.3764199 C142.654358,28.8670704 143.308677,29.1338833 143.98489,29.10899 C144.886732,29.1934896 145.736993,28.6756277 146.07571,27.83555 L147.84035,27.83556 Z M141.55812,25.13292 L146.08449,25.13292 C146.118215,24.5272575 145.897747,23.9349831 145.4762,23.4987915 C145.054654,23.0626 144.470251,22.8220404 143.86379,22.83507 C143.252535,22.8314249 142.665148,23.0720971 142.232186,23.5035933 C141.799223,23.9350894 141.556559,24.5216564 141.55812,25.13292 Z" id="Mac-App-Store" fill="#FFFFFF" fill-rule="nonzero"></path>
        <path d="M26.99671,19.88935 C26.9988493,21.885287 28.1941431,23.6865494 30.03242,24.46405 C29.6788802,25.6125388 29.1459669,26.6979035 28.45342,27.67994 C27.52334,29.07122 26.54819,30.43045 25.00042,30.45557 C23.4965,30.49028 22.99109,29.57051 21.26615,29.57051 C19.52506,29.57051 18.98635,30.43045 17.54395,30.49028 C16.06994,30.54487 14.94345,29.00536 13.97957,27.62713 C12.05306,24.81252 10.55295,19.69513 12.56406,16.21313 C13.50847,14.5160473 15.2742791,13.439145 17.21543,13.37643 C18.69077,13.34608 20.06083,14.3728 20.9679,14.3728 C21.85777,14.3728 23.55066,13.14458 25.2969,13.32788 C26.9566895,13.3798105 28.4948204,14.211346 29.44729,15.57164 C27.94431,16.4956559 27.0194402,18.1251965 26.99671,19.88935 Z M24.15611,11.47681 C23.3373661,12.4951352 22.0967983,13.0816894 20.79022,13.06824 C20.7071256,11.7914154 21.134985,10.5339261 21.97956,9.57274 C22.8348645,8.59853425 24.0258135,7.98233493 25.31511,7.84692 C25.4157857,9.16159511 25.000021,10.4637352 24.15611,11.47681 Z" id="Apple-Logo" fill="#FFFFFF" fill-rule="nonzero"></path>
        <path d="M39.82619,8.731 C40.6151366,8.67438418 41.3878923,8.97454743 41.9317613,9.54887182 C42.4756303,10.1231962 42.7332859,10.9111448 42.63381,11.69584 C42.63381,13.60209 41.60354,14.69784 39.82619,14.69784 L37.67092,14.69784 L37.67092,8.731 L39.82619,8.731 Z M38.59767,13.854 L39.72267,13.854 C40.2864919,13.887702 40.8354865,13.665559 41.2172185,13.2492518 C41.5989505,12.8329446 41.7727796,12.2667944 41.69044,11.708 C41.766789,11.1515245 41.5904566,10.5900462 41.2096711,10.177134 C40.8288856,9.76422175 40.2834957,9.5430863 39.72267,9.57421 L38.59767,9.57421 L38.59767,13.854 Z M43.68068,12.44434 C43.6034671,11.6372251 43.9904837,10.8561119 44.6794159,10.4285974 C45.3683482,10.0010828 46.2400818,10.0010828 46.9290141,10.4285974 C47.6179463,10.8561119 48.0049629,11.6372251 47.92775,12.44434 C48.0064319,13.2523223 47.6197687,14.0349504 46.9302255,14.4633853 C46.2406824,14.8918202 45.3677476,14.8918202 44.6782045,14.4633853 C43.9886613,14.0349504 43.6019981,13.2523223 43.68068,12.44434 Z M47.01368,12.44434 C47.01368,11.46827 46.5752,10.89747 45.80568,10.89747 C45.03322,10.89747 44.59868,11.46827 44.59868,12.44435 C44.59868,13.42824 45.03325,13.99464 45.80568,13.99464 C46.57521,13.99463 47.01369,13.42432 47.01369,12.44434 Z M53.57326,14.69775 L52.65139,14.69775 L51.72073,11.38134 L51.65042,11.38134 L50.72366,14.69775 L49.81057,14.69775 L48.56936,10.19482 L49.47073,10.19482 L50.27737,13.63082 L50.34378,13.63082 L51.26956,10.19482 L52.1221,10.19482 L53.04788,13.63082 L53.11819,13.63082 L53.92092,10.19482 L54.80959,10.19482 L53.57326,14.69775 Z M55.85354,10.19482 L56.709,10.19482 L56.709,10.91015 L56.77541,10.91015 C57.0063449,10.3834779 57.5459729,10.0613075 58.11916,10.1079 C58.5629768,10.0745318 58.9978859,10.2447899 59.3010908,10.5706021 C59.6042957,10.8964142 59.7428931,11.3424238 59.67775,11.7827 L59.67775,14.6977 L58.78908,14.6977 L58.78908,12.00586 C58.78908,11.28223 58.47463,10.92236 57.8174,10.92236 C57.5163658,10.9083391 57.2242202,11.0264826 57.0175546,11.2458168 C56.810889,11.465151 56.710315,11.763801 56.7422,12.06347 L56.7422,14.69775 L55.85353,14.69775 L55.85354,10.19482 Z M61.09377,8.437 L62.0626672,8.437 L62.0626672,14.69774 L61.09377,14.69774 L61.09377,8.437 Z M63.21779,12.44434 C63.1405771,11.6372251 63.5275937,10.8561119 64.2165259,10.4285974 C64.9054582,10.0010828 65.7771918,10.0010828 66.4661241,10.4285974 C67.1550563,10.8561119 67.5420729,11.6372251 67.46486,12.44434 C67.5435419,13.2523223 67.1568787,14.0349504 66.4673355,14.4633853 C65.7777924,14.8918202 64.9048576,14.8918202 64.2153145,14.4633853 C63.5257713,14.0349504 63.1391081,13.2523223 63.21779,12.44434 Z M66.55079,12.44434 C66.55079,11.46827 66.11231,10.89747 65.34279,10.89747 C64.57033,10.89747 64.13579,11.46827 64.13579,12.44435 C64.13579,13.42824 64.57036,13.99464 65.34279,13.99464 C66.11232,13.99463 66.5508,13.42432 66.5508,12.44434 Z M68.40041,13.42432 C68.40041,12.61377 69.00393,12.14649 70.07521,12.08008 L71.29494,12.00977 L71.29494,11.6211 C71.29494,11.14551 70.98049,10.87696 70.37307,10.87696 C69.87698,10.87696 69.53323,11.05909 69.43459,11.37745 L68.57424,11.37745 C68.66506,10.60401 69.3926,10.10792 70.41408,10.10792 C71.54299,10.10792 72.17971,10.66992 72.17971,11.6211 L72.17971,14.69776 L71.32424,14.69776 L71.32424,14.06495 L71.25393,14.06495 C70.9633786,14.5270763 70.4466836,14.7971632 69.90139,14.77195 C69.5191261,14.8117118 69.1378811,14.6879107 68.8519058,14.4311524 C68.5659305,14.1743942 68.4019161,13.8086433 68.40041,13.42432 Z M71.29494,13.03955 L71.29494,12.66309 L70.19533,12.7334 C69.57521,12.7749 69.29396,12.98584 69.29396,13.38281 C69.29396,13.78808 69.64552,14.02392 70.12896,14.02392 C70.4151461,14.0528899 70.7008364,13.9644751 70.9206304,13.7789156 C71.1404244,13.5933561 71.2755016,13.3265411 71.29494,13.03955 Z M73.34768,12.44434 C73.34768,11.02149 74.07913,10.12012 75.21682,10.12012 C75.7912968,10.0936501 76.3293475,10.4014729 76.59768,10.91012 L76.66409,10.91012 L76.66409,8.437 L77.55276,8.437 L77.55276,14.69774 L76.7012,14.69774 L76.7012,13.98631 L76.63089,13.98631 C76.3422742,14.490737 75.7975945,14.7933565 75.21683,14.77195 C74.07131,14.772 73.34768,13.87061 73.34768,12.44434 Z M74.26568,12.44434 C74.26568,13.39942 74.71588,13.97413 75.46881,13.97413 C76.21781,13.97413 76.68072,13.39113 76.68072,12.44825 C76.68072,11.50977 76.21295,10.91846 75.46881,10.91846 C74.72072,10.91846 74.26564,11.49707 74.26564,12.44434 L74.26568,12.44434 Z M81.22951,12.44434 C81.1523564,11.6371722 81.539434,10.8560394 82.2284174,10.4285182 C82.9174008,10.000997 83.7891792,10.000997 84.4781626,10.4285182 C85.167146,10.8560394 85.5542236,11.6371722 85.47707,12.44434 C85.555652,13.2523512 85.1689179,14.0349572 84.4793405,14.4633732 C83.7897632,14.8917893 82.9168168,14.8917893 82.2272395,14.4633732 C81.5376621,14.0349572 81.150928,13.2523512 81.22951,12.44434 Z M84.56251,12.44434 C84.56251,11.46827 84.12403,10.89747 83.35451,10.89747 C82.58205,10.89747 82.14751,11.46827 82.14751,12.44435 C82.14751,13.42824 82.58208,13.99464 83.35451,13.99464 C84.124,13.99463 84.56252,13.42432 84.56252,12.44434 L84.56251,12.44434 Z M86.66945,10.19482 L87.52492,10.19482 L87.52492,10.91015 L87.59133,10.91015 C87.8222649,10.3834779 88.3618929,10.0613075 88.93508,10.1079 C89.3788968,10.0745318 89.8138059,10.2447899 90.1170108,10.5706021 C90.4202157,10.8964142 90.5588131,11.3424238 90.49367,11.7827 L90.49367,14.6977 L89.605,14.6977 L89.605,12.00586 C89.605,11.28223 89.29055,10.92236 88.63332,10.92236 C88.3322858,10.9083391 88.0401402,11.0264826 87.8334746,11.2458168 C87.626809,11.465151 87.526235,11.763801 87.55812,12.06347 L87.55812,14.69775 L86.66945,14.69775 L86.66945,10.19482 Z M95.51516,9.07373 L95.51516,10.21533 L96.49075,10.21533 L96.49075,10.96387 L95.51516,10.96387 L95.51516,13.2793 C95.51516,13.75098 95.7095,13.95752 96.15188,13.95752 C96.2651356,13.9571575 96.3782775,13.9503097 96.49075,13.93701 L96.49075,14.67724 C96.3311595,14.7057907 96.1694656,14.72098 96.00735,14.72265 C95.01907,14.72265 94.62551,14.37499 94.62551,13.50683 L94.62551,10.96383 L93.91067,10.96383 L93.91067,10.21529 L94.62551,10.21529 L94.62551,9.07373 L95.51516,9.07373 Z M97.70461,8.437 L98.58547,8.437 L98.58547,10.91845 L98.65578,10.91845 C98.8978078,10.3871686 99.4468801,10.0645875 100.02878,10.11181 C100.470077,10.0877973 100.899098,10.2618037 101.198989,10.5864339 C101.49888,10.911064 101.638405,11.3525056 101.57956,11.79052 L101.57956,14.69775 L100.69,14.69775 L100.69,12.00975 C100.69,11.29051 100.355,10.92625 99.72711,10.92625 C99.417939,10.9008937 99.1133391,11.013291 98.8947423,11.2333935 C98.6761456,11.453496 98.5658419,11.7588603 98.59332,12.06785 L98.59332,14.69773 L97.70465,14.69773 L97.70461,8.437 Z M106.76125,13.48193 C106.512057,14.3313095 105.690099,14.880103 104.81008,14.78466 C104.209644,14.8005102 103.632591,14.5516307 103.232028,14.1040552 C102.831465,13.6564796 102.647886,13.0554559 102.73,12.46045 C102.650067,11.8637905 102.832958,11.2618037 103.231291,10.810447 C103.629623,10.3590902 104.204202,10.1027768 104.80617,10.10791 C106.0591,10.10791 106.81496,10.96391 106.81496,12.37791 L106.81496,12.688 L103.63527,12.688 L103.63527,12.7378 C103.607132,13.0719401 103.721251,13.4024478 103.949561,13.6480407 C104.177871,13.8936336 104.499188,14.0315239 104.83449,14.0278 C105.269262,14.0799947 105.692483,13.864333 105.90578,13.4819 L106.76125,13.48193 Z M103.63525,12.03076 L105.90966,12.03076 C105.932313,11.7251604 105.824858,11.4242051 105.613777,11.2020591 C105.402695,10.9799131 105.107617,10.8572362 104.80126,10.86426 C104.490752,10.8603589 104.191828,10.9820212 103.972296,11.2016489 C103.752765,11.4212765 103.631233,11.7202537 103.63527,12.03076 L103.63525,12.03076 Z" id="Download-one-the" fill="#FFFFFF" fill-rule="nonzero"></path>
    </g>
</svg>

<svg width="160" height="40" xmlns="http://www.w3.org/2000/svg"><g fill="none" fill-rule="evenodd"><path d="M8.563.5c-2.64 0-3.755.216-4.91.833a5.57 5.57 0 0 0-2.32 2.32C.716 4.808.5 5.923.5 8.563v22.874c0 2.64.216 3.755.833 4.91a5.57 5.57 0 0 0 2.32 2.32c1.155.617 2.27.833 4.91.833h142.874c2.64 0 3.755-.216 4.91-.833a5.57 5.57 0 0 0 2.32-2.32c.617-1.155.833-2.27.833-4.91V8.563c0-2.64-.216-3.755-.833-4.91a5.57 5.57 0 0 0-2.32-2.32c-1.155-.617-2.27-.833-4.91-.833H8.563z" stroke="#A6A6A6" fill="#000"/><path d="M48.149 30.495v-9.14h-.06L44.344 30.4h-1.428l-3.753-9.045h-.06v9.14h-1.756V18.076h2.23l4.018 9.803h.069l4.01-9.803h2.238v12.419h-1.764zm3.247-2.573c0-1.584 1.213-2.54 3.365-2.669l2.479-.138v-.688c0-1.007-.663-1.575-1.791-1.575a1.73 1.73 0 0 0-1.902 1.274H51.81c.052-1.636 1.575-2.797 3.692-2.797 2.16 0 3.588 1.179 3.588 2.96v6.206h-1.78v-1.49h-.044a3.237 3.237 0 0 1-2.857 1.645 2.744 2.744 0 0 1-3.012-2.728zm5.844-.818v-.697l-2.23.138c-1.11.069-1.738.55-1.738 1.325 0 .792.654 1.308 1.652 1.308a2.17 2.17 0 0 0 2.316-2.074zm9.653-2.548a2 2 0 0 0-2.134-1.67c-1.428 0-2.375 1.197-2.375 3.082 0 1.928.955 3.09 2.392 3.09a1.948 1.948 0 0 0 2.117-1.627h1.79a3.618 3.618 0 0 1-3.924 3.176c-2.582 0-4.268-1.765-4.268-4.639 0-2.815 1.686-4.639 4.25-4.639a3.64 3.64 0 0 1 3.926 3.227h-1.774zm13.866 2.582h-4.733l-1.137 3.357h-2.005l4.484-12.419h2.083l4.483 12.419h-2.039l-1.136-3.357zm-4.243-1.549h3.752l-1.85-5.447h-.051l-1.85 5.447zm17.1.38c0 2.813-1.505 4.62-3.778 4.62a3.07 3.07 0 0 1-2.848-1.584h-.043v4.485h-1.859V21.44h1.8v1.506h.033a3.212 3.212 0 0 1 2.883-1.6c2.298 0 3.813 1.816 3.813 4.622zm-1.91 0c0-1.834-.947-3.04-2.392-3.04-1.42 0-2.375 1.231-2.375 3.04 0 1.824.955 3.045 2.375 3.045 1.445 0 2.393-1.196 2.393-3.046zm11.876 0c0 2.813-1.506 4.62-3.779 4.62a3.07 3.07 0 0 1-2.848-1.584h-.043v4.485h-1.859V21.44h1.799v1.506h.034a3.212 3.212 0 0 1 2.883-1.6c2.298 0 3.813 1.816 3.813 4.622zm-1.91 0c0-1.834-.948-3.04-2.393-3.04-1.42 0-2.375 1.231-2.375 3.04 0 1.824.955 3.045 2.375 3.045 1.445 0 2.392-1.196 2.392-3.046zm8.496 1.066c.137 1.231 1.333 2.04 2.968 2.04 1.567 0 2.694-.809 2.694-1.92 0-.963-.68-1.54-2.29-1.936l-1.609-.388c-2.28-.55-3.339-1.617-3.339-3.348 0-2.142 1.868-3.614 4.519-3.614 2.624 0 4.423 1.472 4.483 3.614h-1.876c-.112-1.239-1.136-1.987-2.634-1.987-1.497 0-2.521.757-2.521 1.859 0 .878.654 1.394 2.255 1.79l1.368.336c2.548.602 3.606 1.626 3.606 3.442 0 2.324-1.85 3.779-4.793 3.779-2.754 0-4.614-1.421-4.734-3.667h1.903zm11.635-7.737v2.143h1.722v1.471h-1.722v4.992c0 .775.345 1.137 1.102 1.137.204-.004.408-.018.611-.043v1.463c-.34.063-.686.092-1.032.086-1.833 0-2.548-.689-2.548-2.445v-5.19h-1.316v-1.471h1.316v-2.143h1.867zm2.718 6.67c0-2.849 1.678-4.639 4.294-4.639 2.625 0 4.295 1.79 4.295 4.64 0 2.856-1.661 4.638-4.295 4.638-2.633 0-4.294-1.782-4.294-4.639zm6.695 0c0-1.954-.895-3.108-2.401-3.108-1.506 0-2.401 1.163-2.401 3.108 0 1.962.895 3.107 2.4 3.107 1.507 0 2.402-1.145 2.402-3.107zm3.426-4.527h1.773v1.54h.043a2.16 2.16 0 0 1 2.177-1.635c.214 0 .428.022.637.07v1.737a2.598 2.598 0 0 0-.835-.112 1.873 1.873 0 0 0-1.937 2.083v5.37h-1.858v-9.053zm13.198 6.395c-.25 1.643-1.85 2.771-3.898 2.771-2.634 0-4.269-1.765-4.269-4.596 0-2.84 1.644-4.682 4.19-4.682 2.506 0 4.08 1.72 4.08 4.467v.636h-6.394v.113a2.358 2.358 0 0 0 2.436 2.564 2.048 2.048 0 0 0 2.09-1.273h1.765zm-6.282-2.703h4.526a2.177 2.177 0 0 0-2.22-2.298 2.292 2.292 0 0 0-2.306 2.298zM26.997 19.89a4.973 4.973 0 0 0 3.035 4.574 11.4 11.4 0 0 1-1.579 3.216c-.93 1.391-1.905 2.75-3.453 2.776-1.503.034-2.009-.885-3.734-.885-1.74 0-2.28.86-3.722.92-1.474.054-2.6-1.486-3.564-2.864-1.927-2.814-3.427-7.932-1.416-11.414a5.527 5.527 0 0 1 4.651-2.837c1.476-.03 2.846.997 3.753.997.89 0 2.583-1.228 4.329-1.045a5.268 5.268 0 0 1 4.15 2.244 5.146 5.146 0 0 0-2.45 4.317zm-2.84-8.413a4.263 4.263 0 0 1-3.367 1.591 4.821 4.821 0 0 1 1.19-3.495 5.155 5.155 0 0 1 3.335-1.726 5.067 5.067 0 0 1-1.159 3.63zM39.826 8.731a2.64 2.64 0 0 1 2.808 2.965c0 1.906-1.03 3.002-2.808 3.002h-2.155V8.73h2.155zm-1.228 5.123h1.125a1.876 1.876 0 0 0 1.967-2.146 1.881 1.881 0 0 0-1.967-2.134h-1.125v4.28zm5.083-1.41a2.133 2.133 0 1 1 4.247 0 2.134 2.134 0 1 1-4.247 0zm3.333 0c0-.976-.439-1.547-1.208-1.547-.773 0-1.207.571-1.207 1.547 0 .984.434 1.55 1.207 1.55.77 0 1.208-.57 1.208-1.55zm6.56 2.254h-.923l-.93-3.317h-.07l-.927 3.317h-.913l-1.242-4.503h.902l.806 3.436h.067l.926-3.436h.852l.926 3.436h.07l.803-3.436h.889l-1.237 4.503zm2.28-4.503h.855v.715h.066c.231-.527.771-.849 1.344-.802a1.465 1.465 0 0 1 1.559 1.675v2.915h-.889v-2.692c0-.724-.314-1.084-.972-1.084a1.033 1.033 0 0 0-1.075 1.141v2.635h-.888v-4.503zm5.24-1.758h.969v6.26h-.97v-6.26zm2.124 4.007a2.133 2.133 0 1 1 4.247 0 2.134 2.134 0 1 1-4.247 0zm3.333 0c0-.976-.439-1.547-1.208-1.547-.773 0-1.207.571-1.207 1.547 0 .984.434 1.55 1.207 1.55.77 0 1.208-.57 1.208-1.55zm1.85.98c0-.81.603-1.278 1.674-1.344l1.22-.07v-.389c0-.475-.315-.744-.922-.744-.496 0-.84.182-.938.5h-.86c.09-.773.818-1.27 1.84-1.27 1.128 0 1.765.563 1.765 1.514v3.077h-.856v-.633h-.07c-.29.462-.807.732-1.353.707a1.36 1.36 0 0 1-1.5-1.348zm2.894-.384v-.377l-1.1.07c-.62.042-.901.253-.901.65 0 .405.352.64.835.64a1.061 1.061 0 0 0 1.166-.983zm2.053-.596c0-1.423.731-2.324 1.869-2.324a1.484 1.484 0 0 1 1.38.79h.067V8.437h.889v6.26H76.7v-.71h-.07a1.563 1.563 0 0 1-1.414.785c-1.146 0-1.87-.901-1.87-2.328zm.918 0c0 .955.45 1.53 1.203 1.53.749 0 1.212-.583 1.212-1.526 0-.938-.468-1.53-1.212-1.53-.748 0-1.203.58-1.203 1.526zm6.964 0a2.133 2.133 0 1 1 4.247 0 2.134 2.134 0 1 1-4.247 0zm3.333 0c0-.976-.439-1.547-1.208-1.547-.773 0-1.207.571-1.207 1.547 0 .984.434 1.55 1.207 1.55.769 0 1.208-.57 1.208-1.55zm2.106-2.25h.856v.716h.066c.231-.527.77-.849 1.344-.802a1.465 1.465 0 0 1 1.559 1.675v2.915h-.889v-2.692c0-.724-.314-1.084-.972-1.084a1.033 1.033 0 0 0-1.075 1.141v2.635h-.889v-4.503zm8.846-1.12v1.141h.976v.749h-.976v2.315c0 .472.195.679.637.679.113 0 .226-.008.339-.021v.74c-.16.029-.322.044-.484.046-.988 0-1.381-.348-1.381-1.216v-2.543h-.715v-.749h.715V9.074h.89zm2.19-.637h.88v2.481h.07a1.386 1.386 0 0 1 1.374-.806 1.483 1.483 0 0 1 1.55 1.679v2.907h-.889V12.01c0-.72-.335-1.084-.963-1.084a1.052 1.052 0 0 0-1.134 1.142v2.63h-.888V8.437zm9.056 5.045a1.828 1.828 0 0 1-1.95 1.303 2.045 2.045 0 0 1-2.081-2.325 2.077 2.077 0 0 1 2.076-2.352c1.253 0 2.009.856 2.009 2.27v.31h-3.18v.05a1.19 1.19 0 0 0 1.2 1.29 1.08 1.08 0 0 0 1.07-.546h.856zm-3.126-1.451h2.275a1.086 1.086 0 0 0-1.109-1.167 1.152 1.152 0 0 0-1.166 1.167z" fill="#FFF" fill-rule="nonzero"/></g></svg>
